app/images/info.svg

<svg height="16" viewBox="0 0 16 16" width="16" xmlns="http://www.w3.org/2000/svg"><g fill="#fff" fill-rule="evenodd"><path d="m13.2142857.64285714v-.14285714h-12.7142857v12.7142857h.14285714v-12.57142856z" stroke="#fff"/><path d="m3.42857143 3.42857143v11.42857147h11.42857147v-11.42857147zm-1.14285714-1.14285714h13.71428571v13.71428571h-13.71428571z" fill-rule="nonzero"/><rect height="5" rx="1" width="2" x="8" y="8"/><rect height="2" rx="1" width="2" x="8" y="5"/></g></svg>

<svg height="16" width="16" xmlns="http://www.w3.org/2000/svg">
    <g fill="#fff" fill-rule="evenodd">
        <path d="M13.214.643V.5H.5v12.714h.143V.643z" stroke="#fff"/>
        <path d="M3.429 3.429v11.428h11.428V3.43zM2.286 2.286H16V16H2.286z" fill-rule="nonzero"/>
        <rect height="5" rx="1" width="2" x="8" y="8"/>
        <rect height="2" rx="1" width="2" x="8" y="5"/>
    </g>
</svg>
